packages/kaspersky-hexa-ui-icons/src/iconsSVGs/32/StatusDangerSolid.svg

<svg xmlns="http://www.w3.org/2000/svg" width="32" height="32" fill="none" viewBox="0 0 32 32"><path fill="#000" fill-rule="evenodd" d="M16 30c7.732 0 14-6.268 14-14S23.732 2 16 2 2 8.268 2 16s6.268 14 14 14m0-20c.5523 0 1 .4477 1 1v6c0 .5523-.4477 1-1 1s-1-.4477-1-1v-6c0-.5523.4477-1 1-1m1 11c0 .5523-.4477 1-1 1s-1-.4477-1-1 .4477-1 1-1 1 .4477 1 1"/></svg>

<svg width="32" height="32" viewBox="0 0 32 32" fill="none" xmlns="http://www.w3.org/2000/svg">
<path fill-rule="evenodd" clip-rule="evenodd" d="M16 30C23.732 30 30 23.732 30 16C30 8.26801 23.732 2 16 2C8.26801 2 2 8.26801 2 16C2 23.732 8.26801 30 16 30ZM16 10C16.5523 10 17 10.4477 17 11V17C17 17.5523 16.5523 18 16 18C15.4477 18 15 17.5523 15 17V11C15 10.4477 15.4477 10 16 10ZM17 21C17 21.5523 16.5523 22 16 22C15.4477 22 15 21.5523 15 21C15 20.4477 15.4477 20 16 20C16.5523 20 17 20.4477 17 21Z" fill="black"/>
</svg>
